resources/img/achievements/award2.svg

<?xml version="1.0" encoding="UTF-8" standalone="no"?>
<svg
   xmlns:dc="http://purl.org/dc/elements/1.1/"
   xmlns:cc="http://creativecommons.org/ns#"
   xmlns:rdf="http://www.w3.org/1999/02/22-rdf-syntax-ns#"
   xmlns:svg="http://www.w3.org/2000/svg"
   xmlns="http://www.w3.org/2000/svg"
   xmlns:sodipodi="http://sodipodi.sourceforge.net/DTD/sodipodi-0.dtd"
   xmlns:inkscape="http://www.inkscape.org/namespaces/inkscape"
   version="1.1"
   id="svg2"
   width="64"
   height="64"
   viewBox="0 0 64 64"
   sodipodi:docname="award2.svg"
   inkscape:version="1.0.1 (3bc2e813f5, 2020-09-07)">
  <metadata
     id="metadata8">
    <rdf:RDF>
      <cc:Work
         rdf:about="">
        <dc:format>image/svg+xml</dc:format>
        <dc:type
           rdf:resource="http://purl.org/dc/dcmitype/StillImage" />
        <dc:title></dc:title>
        <cc:license
           rdf:resource="http://creativecommons.org/licenses/by/4.0/" />
      </cc:Work>
      <cc:License
         rdf:about="http://creativecommons.org/licenses/by/4.0/">
        <cc:permits
           rdf:resource="http://creativecommons.org/ns#Reproduction" />
        <cc:permits
           rdf:resource="http://creativecommons.org/ns#Distribution" />
        <cc:requires
           rdf:resource="http://creativecommons.org/ns#Notice" />
        <cc:requires
           rdf:resource="http://creativecommons.org/ns#Attribution" />
        <cc:permits
           rdf:resource="http://creativecommons.org/ns#DerivativeWorks" />
      </cc:License>
    </rdf:RDF>
  </metadata>
  <defs
     id="defs6" />
  <sodipodi:namedview
     pagecolor="#686868"
     bordercolor="#000000"
     borderopacity="1"
     objecttolerance="10"
     gridtolerance="10"
     guidetolerance="10"
     inkscape:pageopacity="0"
     inkscape:pageshadow="2"
     inkscape:window-width="1920"
     inkscape:window-height="1136"
     id="namedview4"
     showgrid="true"
     inkscape:pagecheckerboard="false"
     showguides="true"
     inkscape:guide-bbox="true"
     inkscape:snap-object-midpoints="true"
     inkscape:snap-others="true"
     inkscape:object-nodes="false"
     inkscape:snap-nodes="false"
     inkscape:zoom="14.75"
     inkscape:cx="28.706671"
     inkscape:cy="26.800074"
     inkscape:window-x="0"
     inkscape:window-y="27"
     inkscape:window-maximized="1"
     inkscape:current-layer="g10"
     inkscape:document-rotation="0"
     showborder="true"
     borderlayer="true"
     inkscape:showpageshadow="false"
     inkscape:snap-global="false"
     inkscape:snap-center="true">
    <inkscape:grid
       type="xygrid"
       id="grid4526"
       dotted="false"
       empspacing="8"
       snapvisiblegridlinesonly="true" />
    <sodipodi:guide
       position="32,69.288136"
       orientation="1,0"
       id="guide838"
       inkscape:locked="false" />
    <sodipodi:guide
       position="60.338983,96"
       orientation="0,1"
       id="guide842"
       inkscape:locked="false" />
  </sodipodi:namedview>
  <g
     id="g8"
     transform="matrix(1.0948648,0,0,1.0948648,18.903531,19.700807)"
     style="opacity:0.65;fill:#ffffff;fill-opacity:1">
    <g
       id="g10"
       transform="matrix(1.1280006,0,0,1.1280006,-1.6438489,-2.1146984)"
       style="fill:#17152c;fill-opacity:1">
      <path
         id="path8"
         style="fill:#17152c;fill-opacity:1;stroke-width:1.23501"
         d="M 26.984375 19.855469 C 26.305121 19.855469 25.748047 20.410589 25.748047 21.089844 L 25.748047 30.267578 C 25.748047 30.699831 25.970663 31.105824 26.353516 31.328125 L 31.515625 34.427734 L 30.292969 37.318359 L 27.552734 37.552734 C 26.984631 37.602135 26.761738 38.282473 27.181641 38.640625 L 29.269531 40.443359 L 28.638672 43.134766 C 28.515171 43.665819 29.09515 44.086786 29.564453 43.802734 L 31.923828 42.369141 L 34.283203 43.789062 C 34.752506 44.073114 35.332485 43.6541 35.208984 43.123047 L 34.580078 40.431641 L 36.666016 38.626953 C 37.073568 38.268801 36.864347 37.590416 36.308594 37.541016 L 33.566406 37.306641 L 32.34375 34.416016 L 37.505859 31.316406 C 37.876362 31.106455 38.099609 30.712181 38.099609 30.267578 L 38.099609 21.089844 C 38.099609 20.410589 37.542536 19.855469 36.863281 19.855469 L 26.984375 19.855469 z M 30.689453 21.089844 L 33.158203 21.089844 L 33.158203 32.490234 L 31.923828 33.230469 L 30.689453 32.490234 L 30.689453 21.089844 z "
         transform="matrix(0.80971125,0,0,0.80971125,-13.84909,-14.077234)" />
      <path
         id="path8-3"
         style="opacity:0.65;fill:#17152c;fill-opacity:1;stroke-width:0.527174"
         d="m 5.3525005,13.444255 c -0.091637,-0.101948 -0.1870295,-0.189037 -0.3534918,0.005 l -0.5219009,1.233886 -1.1696909,0.100045 c -0.2424997,0.02109 -0.3376431,0.311495 -0.1584044,0.464375 l 0.891233,0.769511 -0.2692877,1.148849 c -0.052715,0.226684 0.1948517,0.406378 0.3951775,0.285128 l 1.0071182,-0.611941 1.0071182,0.606105 c 0.2003257,0.12125 0.4478944,-0.05761 0.395177,-0.284294 L 6.3070951,16.01207 7.1974941,15.241725 C 7.371461,15.088844 7.2821533,14.79927 7.0449257,14.778183 L 5.8744011,14.678139 Z"
         sodipodi:nodetypes="cccccccccccccccc" />
      <path
         id="path7770"
         style="opacity:0.65;fill:#17152c;fill-opacity:1;stroke-width:0.527174"
         d="m 18.639359,13.444255 c -0.09164,-0.101948 -0.18703,-0.189037 -0.353492,0.005 l -0.521901,1.233886 -1.169691,0.100045 c -0.242499,0.02109 -0.337643,0.311495 -0.158404,0.464375 l 0.891233,0.769511 -0.269288,1.148849 c -0.05271,0.226684 0.194852,0.406378 0.395178,0.285128 l 1.007118,-0.611941 1.007118,0.606105 c 0.200326,0.12125 0.447894,-0.05761 0.395177,-0.284294 l -0.268454,-1.148849 0.890399,-0.770345 c 0.173967,-0.152881 0.08466,-0.442455 -0.152568,-0.463542 l -1.170525,-0.100044 z"
         sodipodi:nodetypes="cccccccccccccccc" />
    </g>
  </g>
</svg>

<svg xmlns="http://www.w3.org/2000/svg" width="64" height="64"><g style="opacity:.65;fill:#fff;fill-opacity:1"><g style="fill:#17152c;fill-opacity:1"><path style="fill:#17152c;fill-opacity:1;stroke-width:1.23501" d="M26.984 19.855a1.24 1.24 0 0 0-1.236 1.235v9.178c0 .432.223.838.606 1.06l5.162 3.1-1.223 2.89-2.74.235c-.568.05-.791.73-.371 1.088l2.088 1.802-.631 2.692a.62.62 0 0 0 .925.668l2.36-1.434 2.36 1.42a.62.62 0 0 0 .925-.666l-.629-2.691 2.086-1.805a.62.62 0 0 0-.357-1.086l-2.743-.234-1.222-2.891 5.162-3.1c.37-.21.594-.604.594-1.048V21.09a1.24 1.24 0 0 0-1.237-1.235h-9.879zm3.705 1.235h2.47v11.4l-1.235.74-1.235-.74v-11.4z"/><path style="opacity:.65;fill:#17152c;fill-opacity:1;stroke-width:.527174" d="M5.353 13.444c-.092-.102-.188-.189-.354.005l-.522 1.234-1.17.1c-.242.021-.337.312-.158.465l.891.77-.269 1.148a.265.265 0 0 0 .395.285l1.007-.612 1.007.606c.2.121.448-.057.396-.284l-.269-1.149.89-.77a.265.265 0 0 0-.152-.464l-1.17-.1ZM18.64 13.444c-.092-.102-.188-.189-.354.005l-.522 1.234-1.17.1c-.242.021-.337.312-.158.465l.891.77-.27 1.148a.265.265 0 0 0 .396.285l1.007-.612 1.007.606c.2.121.448-.057.395-.284l-.268-1.149.89-.77a.265.265 0 0 0-.152-.464l-1.17-.1z" transform="matrix(1.235 0 0 1.235 17.104 17.385)"/></g></g></svg>
